X:1
%%titleformat R-P-Q-T C1 O1, T+T N1
T: Iridis Alpha: 1 of 100,000,000,000,000
T: Three 4-bar phrases from Voice 3.
L: 1/8
K: D % scale: C major
C,1G,1C1G,1|G,1D1G1D1|C1G1c1G1|G,1D1G1D1|
G,1D1G1D1|D1A1d1A1|G1d1g1d1|D1A1d1A1|
C1G1c1G1|G1d1g1d1|c1g1c'1g1|G1d1g1d1|
